X: 748
T: Da xuanju
L: 1/8
M: 2/4
K: G
d d c d [I:setbarnb 1]| 
[M:3/4]ze2BA2 | 
[M:2/4]B A E G | 
[M:3/4]zA2ED2 | 
[M:2/4]e d e d | 
B e d B | 
A G E G | 
zA2ed2 |]

@@@ Tune index: 9622
